!!!COM: Johannes Brahms
!!!CNT: Deutscher
!!!TXO: Deutsche
!!!OTL: Sehnsucht
!!!OPS: Op. 14
!!!ONM: No. 8
!!!LYR: Volkslied
!!!ONB: Original key: e minor
!!!ENC: Ayako Kataoka        
!!!EED: Leigh VanHandel
!!!YOR: C.F. Peters, Brahms Lieder fu2r eine Singstimme mit Klavierbegleitung, Band III, ausgabe fu2r tiefere Stimme
!!!ODT: 1858/
!!NB: Vocal melody and text only encoded.
**kern	**silbe
*clefG2	*
*k[b-]	*
*M3/4	*
*MM[andante]	*
=1	=1
2r	.
4r	.
=2	=2
4r	.
4r	.
{4a	{Mein
=3	=3
4a	Schatz
4dd	ist
4cc	nicht
=4	=4
2a}	da,}
{4f	{ist
=5	=5
4a	weit
4g	u2-
4e	-berm
=6	=6
2d	See
8f	und
8g	so
=7	=7
4a	oft
4dd	ich
4cc	dran
=8	=8
2a}	denk,}
{8f	{tut
8f	mir's
=9	=9
4a	Her-
4g	-ze
4e	so
=10	=10
2d}	weh!}
{4f	{Scho2n
=11	=11
4g	blau
4f	ist
4g	der
=12	=12
2a	See
8g	und
8g	mein
=13	=13
4a	Herz
4dd	tut
4cc	mir
=14	=14
2a}	weh,}
{8g	{und
8g	mein
=15	=15
4a	Herz
4ff	wird
4dd	nicht
=16	=16
4ee}	g'sund,}
4r	.
{8cc	{bis
8bn	mein
=17	=17
4a	Schatz
4g	wie-
4e	-der
=18	=18
2d}	kommt!}
{4f	{Scho2n
=19	=19
4g	blau
4f	ist
4g	der
=20	=20
4a}	See}
8r	.
{8g	{und
4a	mein
=21	=21
4bn	Herz
4dd	tut
4cc	mir
=22	=22
4a}	weh,}
4r	.
{8a	{und
8a	mein
=23	=23
4bn	Herz
4ff	wird
4dd	nicht
=24	=24
*M4/4	*
4ee}	g'sund}
4r	.
{4cc	{bis
4b-	mein
=25	=25
*M3/4	*
4a	Schatz
4g	wie-
4e	-der
=26	=26
2d}	kommt.}
4r	.
*-	*-
